src/lib/packages/icons/src/assets/line/hat-chef.svg

<svg width="24" height="24" viewBox="0 0 24 24" fill="none" xmlns="http://www.w3.org/2000/svg">
<path d="M17.06 5.27C16.07 3.42 14.14 2.25 12 2.25C9.86 2.25 7.93 3.42 6.94 5.27C4.4 5.01 2.25 7.01 2.25 9.5C2.25 11.38 3.5 13.02 5.25 13.56V19.5C5.25 20.74 6.26 21.75 7.5 21.75H16.5C17.74 21.75 18.75 20.74 18.75 19.5V13.56C20.5 13.02 21.75 11.38 21.75 9.5C21.75 7.01 19.6 5.01 17.06 5.27ZM16.5 20.25H7.5C7.09 20.25 6.75 19.91 6.75 19.5V16.75H17.25V19.5C17.25 19.91 16.91 20.25 16.5 20.25ZM17.89 12.22C17.52 12.27 17.25 12.59 17.25 12.96V15.25H15.39L15.74 13.12C15.81 12.71 15.53 12.32 15.12 12.26C14.72 12.19 14.33 12.47 14.26 12.88L13.86 15.25H12.75V12C12.75 11.59 12.41 11.25 12 11.25C11.59 11.25 11.25 11.59 11.25 12V15.25H10.14L9.73999 12.88C9.66999 12.47 9.28 12.2 8.88 12.26C8.47001 12.33 8.20001 12.71 8.26001 13.12L8.60999 15.25H6.75V12.96C6.75 12.59 6.47999 12.27 6.10999 12.22C4.76999 12.03 3.75 10.86 3.75 9.5C3.75 7.98 4.98 6.75 6.5 6.75C6.72 6.75 6.96 6.78 7.19 6.84C7.55 6.93 7.93001 6.73999 8.07001 6.39999C8.72001 4.78999 10.27 3.75999 12.01 3.75999C13.75 3.75999 15.29 4.79999 15.95 6.39999C16.09 6.74999 16.46 6.94 16.83 6.84C18.65 6.39 20.27 7.76 20.27 9.5C20.27 10.86 19.26 12.03 17.91 12.22H17.89Z" fill="currentColor"/>
</svg>

<svg xmlns="http://www.w3.org/2000/svg" width="24" height="24" fill="none"><path fill="currentColor" d="M17.06 5.27A5.723 5.723 0 0 0 12 2.25c-2.14 0-4.07 1.17-5.06 3.02A4.254 4.254 0 0 0 2.25 9.5c0 1.88 1.25 3.52 3 4.06v5.94c0 1.24 1.01 2.25 2.25 2.25h9c1.24 0 2.25-1.01 2.25-2.25v-5.94c1.75-.54 3-2.18 3-4.06 0-2.49-2.15-4.49-4.69-4.23Zm-.56 14.98h-9c-.41 0-.75-.34-.75-.75v-2.75h10.5v2.75c0 .41-.34.75-.75.75Zm1.39-8.03c-.37.05-.64.37-.64.74v2.29h-1.86l.35-2.13c.07-.41-.21-.8-.62-.86-.4-.07-.79.21-.86.62l-.4 2.37h-1.11V12c0-.41-.34-.75-.75-.75s-.75.34-.75.75v3.25h-1.11l-.4-2.37a.76.76 0 0 0-.86-.62c-.41.07-.68.45-.62.86l.35 2.13H6.75v-2.29c0-.37-.27-.69-.64-.74A2.764 2.764 0 0 1 3.75 9.5a2.748 2.748 0 0 1 3.44-2.66c.36.09.74-.1.88-.44a4.22 4.22 0 0 1 3.94-2.64c1.74 0 3.28 1.04 3.94 2.64.14.35.51.54.88.44a2.748 2.748 0 1 1 1.08 5.38h-.02Z"/></svg>
